packages/foundations/assets/icons/functional/images/transportation/bike_12.svg

<svg width="12" height="12" viewBox="0 0 12 12" fill="none" xmlns="http://www.w3.org/2000/svg">
<g clip-path="url(#clip0_232_479)">
<path fill-rule="evenodd" clip-rule="evenodd" d="M8.71328 3.50081C8.57697 3.52925 8.44015 3.55656 8.30282 3.58275L9.08593 6.08959C9.99218 6.09545 10.725 6.83192 10.725 7.73955C10.725 8.65082 9.98629 9.38955 9.07502 9.38955C8.16375 9.38955 7.42502 8.65082 7.42502 7.73955C7.42502 7.14237 7.74228 6.61928 8.21745 6.32964L8.02082 5.69827L6.11145 7.71291C6.05288 7.77471 5.98183 7.82334 5.90301 7.85557C5.61819 7.97201 5.2723 7.85557 5.12058 7.52724C4.97607 7.17727 4.83282 6.82701 4.69082 6.47647L4.34868 6.90494C4.47659 7.12266 4.57502 7.41069 4.57502 7.73955C4.57502 8.65082 3.83629 9.38955 2.92502 9.38955C2.01375 9.38955 1.27502 8.65082 1.27502 7.73955C1.27502 6.82828 2.01375 6.08955 2.92502 6.08955C3.20359 6.08955 3.46603 6.15858 3.69618 6.28047L4.30142 5.52307L3.79682 4.28947L3.52502 4.28955C3.2765 4.28955 3.07502 4.08808 3.07502 3.83955C3.07502 3.61173 3.26179 3.38955 3.52502 3.38955C3.92401 3.38825 4.32308 3.38825 4.72223 3.38955C4.97076 3.38955 5.17223 3.59102 5.17223 3.83955C5.17223 4.06737 4.98349 4.28647 4.76762 4.28647C4.84105 4.47925 4.92105 4.67525 5.00762 4.87447L7.52762 4.11847L7.29546 3.37362C7.22197 3.13817 7.33877 2.86659 7.63677 2.79829C8.02082 2.72082 8.29307 2.66703 8.53677 2.61829C8.71328 2.58319 8.98742 2.66211 9.05602 2.931C9.15132 3.30014 8.85018 3.47522 8.71328 3.50081ZM2.92502 6.98955C2.51081 6.98955 2.17502 7.32534 2.17502 7.73955C2.17502 8.15377 2.51081 8.48955 2.92502 8.48955C3.33924 8.48955 3.67502 8.15377 3.67502 7.73955C3.67502 7.32534 3.33924 6.98955 2.92502 6.98955ZM9.07502 6.98955C8.66081 6.98955 8.32502 7.32534 8.32502 7.73955C8.32502 8.15377 8.66081 8.48955 9.07502 8.48955C9.48924 8.48955 9.82502 8.15377 9.82502 7.73955C9.82502 7.32534 9.48924 6.98955 9.07502 6.98955ZM7.33082 5.11747L5.35022 5.71147L5.77742 6.75615L7.33082 5.11747Z" fill="#1A1C1F"/>
</g>
<defs>
<clipPath id="clip0_232_479">
<rect width="12" height="12" fill="white"/>
</clipPath>
</defs>
</svg>

<svg xmlns="http://www.w3.org/2000/svg" width="12" height="12" fill="none"><g clip-path="url(#a)"><path fill="#1A1C1F" fill-rule="evenodd" d="m8.713 3.5-.41.083.783 2.507a1.65 1.65 0 1 1-.869.24l-.196-.632-1.91 2.015a.6.6 0 0 1-.208.143.606.606 0 0 1-.782-.329q-.217-.525-.43-1.05l-.342.428a1.65 1.65 0 1 1-.652-.624l.604-.758-.504-1.234h-.272a.45.45 0 0 1 0-.9h1.197a.45.45 0 0 1 .45.45c0 .228-.189.447-.404.447q.11.29.24.588l2.52-.756-.233-.744a.444.444 0 0 1 .342-.576l.9-.18c.176-.035.45.044.519.313a.45.45 0 0 1-.343.57M2.925 6.99a.75.75 0 1 0 0 1.5.75.75 0 0 0 0-1.5m6.15 0a.75.75 0 1 0 0 1.5.75.75 0 0 0 0-1.5M7.331 5.117l-1.98.594.426 1.045z" clip-rule="evenodd"/></g><defs><clipPath id="a"><path fill="#fff" d="M0 0h12v12H0z"/></clipPath></defs></svg>
